src/assets/icons/polygon-icon.svg

<svg width="29" height="26" viewBox="0 0 29 26" fill="none" xmlns="http://www.w3.org/2000/svg">
<path d="M6.83809 17.9094C7.35279 18.2092 8.01454 18.2092 8.60276 17.9094L12.7203 15.4361L15.5144 13.8621L19.5585 11.3887C20.0732 11.0889 20.7349 11.0889 21.3231 11.3887L24.4848 13.3374C24.9995 13.6372 25.3672 14.2368 25.3672 14.9114L25.3672 18.659C25.3672 19.2586 25.0731 19.8582 24.4848 20.2329L21.3231 22.1067C20.8084 22.4065 20.1467 22.4065 19.5585 22.1067L16.3967 20.158C15.8821 19.8582 15.5144 19.2586 15.5144 18.584L15.5144 16.1106L12.7203 17.7595L12.7203 20.3079C12.7203 20.9075 13.0145 21.5071 13.6027 21.8818L19.4849 25.4045C19.9996 25.7043 20.6614 25.7043 21.2496 25.4045L27.2789 21.8069C27.8671 21.5071 28.1613 20.9075 28.1613 20.3079L28.1613 13.2625C28.1613 12.6629 27.8671 12.0633 27.2789 11.6885L21.3231 8.16581C20.8084 7.86601 20.1467 7.86601 19.5585 8.16581L15.5144 10.5642L12.7203 12.2132L8.67629 14.6116C8.1616 14.9114 7.49984 14.9114 6.91162 14.6116L3.74991 12.7378C3.23521 12.438 2.86757 11.8384 2.86757 11.1638L2.86757 7.4163C2.86757 6.81669 3.16168 6.21708 3.74991 5.84233L6.83809 3.96855C7.35279 3.66875 8.01454 3.66875 8.60277 3.96855L11.7645 5.84233C12.2792 6.14213 12.6468 6.74174 12.6468 7.4163L12.6468 9.81473L15.4409 8.16581L15.4409 5.69243C15.4409 5.09282 15.1468 4.49321 14.5585 4.11846L8.60277 0.59576C8.08807 0.295958 7.42632 0.295958 6.83809 0.59576L0.882311 4.11846C0.367615 4.41826 -2.68989e-05 5.01787 -2.69549e-05 5.69243L-2.75461e-05 12.8128C-2.75959e-05 13.4124 0.294086 14.012 0.88231 14.3867L6.83809 17.9094Z" fill="#4CBECF"/>
</svg>

<?xml version="1.0" encoding="UTF-8"?>
<svg fill="none" viewBox="0 0 29 26" xmlns="http://www.w3.org/2000/svg">
<path d="m6.8381 17.909c0.5147 0.2998 1.1764 0.2998 1.7647 0l4.1175-2.4733 2.7941-1.574 4.0441-2.4734c0.5147-0.2998 1.1764-0.2998 1.7646 0l3.1617 1.9487c0.5147 0.2998 0.8824 0.8994 0.8824 1.574v3.7476c0 0.5996-0.2941 1.1992-0.8824 1.5739l-3.1617 1.8738c-0.5147 0.2998-1.1764 0.2998-1.7646 0l-3.1618-1.9487c-0.5146-0.2998-0.8823-0.8994-0.8823-1.574v-2.4734l-2.7941 1.6489v2.5484c0 0.5996 0.2942 1.1992 0.8824 1.5739l5.8822 3.5227c0.5147 0.2998 1.1765 0.2998 1.7647 0l6.0293-3.5976c0.5882-0.2998 0.8824-0.8994 0.8824-1.499v-7.0454c0-0.5996-0.2942-1.1992-0.8824-1.574l-5.9558-3.5227c-0.5147-0.2998-1.1764-0.2998-1.7646 0l-4.0441 2.3984-2.7941 1.649-4.044 2.3984c-0.51469 0.2998-1.1764 0.2998-1.7647 0l-3.1617-1.8738c-0.5147-0.2998-0.88234-0.8994-0.88234-1.574v-3.7475c0-0.59961 0.29411-1.1992 0.88234-1.574l3.0882-1.8738c0.5147-0.2998 1.1764-0.2998 1.7647 0l3.1617 1.8738c0.5147 0.2998 0.8823 0.89941 0.8823 1.574v2.3984l2.7941-1.6489v-2.4734c0-0.59961-0.2941-1.1992-0.8824-1.574l-5.9557-3.5227c-0.5147-0.2998-1.1764-0.2998-1.7647 0l-5.9558 3.5227c-0.5147 0.2998-0.88234 0.89941-0.88234 1.574l-5.912e-7 7.1204c-4.98e-8 0.5996 0.29411 1.1992 0.88234 1.5739l5.9558 3.5227z" fill="#4CBECF"/>
</svg>
